static/img/components/sentiment-scale-selected-example.svg

<svg width="228" height="84" viewBox="0 0 228 84" fill="none" xmlns="http://www.w3.org/2000/svg">
<rect width="228" height="84" fill="#F1F1F6"/>
<path d="M42 52C36.49 52 32 47.51 32 42C32 36.49 36.49 32 42 32C47.51 32 52 36.49 52 42C52 47.51 47.51 52 42 52ZM42 34C37.59 34 34 37.59 34 42C34 46.41 37.59 50 42 50C46.41 50 50 46.41 50 42C50 37.59 46.41 34 42 34ZM38.5 38C37.67 38 37 38.67 37 39.5C37 40.33 37.67 41 38.5 41C39.33 41 40 40.33 40 39.5C40 38.67 39.33 38 38.5 38ZM45.5 38C44.67 38 44 38.67 44 39.5C44 40.33 44.67 41 45.5 41C46.33 41 47 40.33 47 39.5C47 38.67 46.33 38 45.5 38ZM46.5 46.99C46.77 46.93 46.94 46.66 46.88 46.39C46.36 44.1 44.35 42.5 42 42.5C39.65 42.5 37.64 44.1 37.12 46.39C37.099 46.5168 37.1273 46.6467 37.1991 46.7533C37.2709 46.8598 37.3807 46.9349 37.5061 46.963C37.6314 46.9912 37.7628 46.9703 37.8732 46.9046C37.9837 46.839 38.0648 46.7336 38.1 46.61C38.52 44.78 40.12 43.5 42 43.5C43.88 43.5 45.49 44.78 45.9 46.61C45.95 46.84 46.16 47 46.39 47C46.43 47 46.46 47 46.5 46.99Z" fill="#252A2E"/>
<g clip-path="url(#clip0_1121_211195)">
<path d="M78 52C72.49 52 68 47.51 68 42C68 36.49 72.49 32 78 32C83.51 32 88 36.49 88 42C88 47.51 83.51 52 78 52ZM78 34C73.59 34 70 37.59 70 42C70 46.41 73.59 50 78 50C82.41 50 86 46.41 86 42C86 37.59 82.41 34 78 34ZM74.5 38C73.67 38 73 38.67 73 39.5C73 40.33 73.67 41 74.5 41C75.33 41 76 40.33 76 39.5C76 38.67 75.33 38 74.5 38ZM81.5 38C80.67 38 80 38.67 80 39.5C80 40.33 80.67 41 81.5 41C82.33 41 83 40.33 83 39.5C83 38.67 82.33 38 81.5 38ZM81.71 46.88C81.92 46.7 81.94 46.38 81.76 46.17C80.81 45.09 79.44 44.46 78 44.46C76.56 44.46 75.19 45.08 74.24 46.17C74.06 46.38 74.08 46.69 74.29 46.88C74.5 47.06 74.81 47.04 75 46.83C75.76 45.96 76.86 45.47 78.01 45.47C79.16 45.47 80.26 45.97 81.02 46.83C81.12 46.94 81.26 47 81.4 47C81.52 47 81.63 46.96 81.73 46.88H81.71Z" fill="#252A2E"/>
</g>
<path d="M186 32C180.48 32 176 36.48 176 42C176 47.52 180.48 52 186 52C191.52 52 196 47.52 196 42C196 36.48 191.52 32 186 32ZM182.5 38C183.33 38 184 38.67 184 39.5C184 40.33 183.33 41 182.5 41C181.67 41 181 40.33 181 39.5C181 38.67 181.67 38 182.5 38ZM190.88 44.11C190.36 46.4 188.35 48 186 48C183.65 48 181.64 46.4 181.12 44.11C181.099 43.9832 181.127 43.8533 181.199 43.7467C181.271 43.6402 181.381 43.5651 181.506 43.537C181.631 43.5088 181.763 43.5297 181.873 43.5954C181.984 43.661 182.065 43.7664 182.1 43.89C182.52 45.72 184.12 47 186 47C187.88 47 189.49 45.72 189.9 43.89C189.935 43.7664 190.016 43.661 190.127 43.5954C190.237 43.5297 190.369 43.5088 190.494 43.537C190.619 43.5651 190.729 43.6402 190.801 43.7467C190.873 43.8533 190.901 43.9832 190.88 44.11ZM189.5 41C188.67 41 188 40.33 188 39.5C188 38.67 188.67 38 189.5 38C190.33 38 191 38.67 191 39.5C191 40.33 190.33 41 189.5 41Z" fill="#0063A3"/>
<g clip-path="url(#clip1_1121_211195)">
<path d="M114 52C108.49 52 104 47.51 104 42C104 36.49 108.49 32 114 32C119.51 32 124 36.49 124 42C124 47.51 119.51 52 114 52ZM114 34C109.59 34 106 37.59 106 42C106 46.41 109.59 50 114 50C118.41 50 122 46.41 122 42C122 37.59 118.41 34 114 34ZM110.5 38C109.67 38 109 38.67 109 39.5C109 40.33 109.67 41 110.5 41C111.33 41 112 40.33 112 39.5C112 38.67 111.33 38 110.5 38ZM117.5 38C116.67 38 116 38.67 116 39.5C116 40.33 116.67 41 117.5 41C118.33 41 119 40.33 119 39.5C119 38.67 118.33 38 117.5 38ZM118 45.5C118 45.22 117.78 45 117.5 45H110.5C110.22 45 110 45.22 110 45.5C110 45.78 110.22 46 110.5 46H117.5C117.78 46 118 45.78 118 45.5Z" fill="#252A2E"/>
</g>
<g clip-path="url(#clip2_1121_211195)">
<path d="M150 52C144.49 52 140 47.51 140 42C140 36.49 144.49 32 150 32C155.51 32 160 36.49 160 42C160 47.51 155.51 52 150 52ZM150 34C145.59 34 142 37.59 142 42C142 46.41 145.59 50 150 50C154.41 50 158 46.41 158 42C158 37.59 154.41 34 150 34ZM146.5 38C145.67 38 145 38.67 145 39.5C145 40.33 145.67 41 146.5 41C147.33 41 148 40.33 148 39.5C148 38.67 147.33 38 146.5 38ZM153.5 38C152.67 38 152 38.67 152 39.5C152 40.33 152.67 41 153.5 41C154.33 41 155 40.33 155 39.5C155 38.67 154.33 38 153.5 38ZM153.76 46.29C153.94 46.08 153.92 45.77 153.71 45.58C153.609 45.4932 153.478 45.4497 153.345 45.4591C153.212 45.4684 153.088 45.5299 153 45.63C152.24 46.5 151.14 46.99 149.99 46.99C148.84 46.99 147.74 46.49 146.98 45.63C146.892 45.5296 146.768 45.468 146.635 45.4587C146.502 45.4493 146.371 45.4929 146.27 45.58C146.06 45.76 146.04 46.08 146.22 46.29C147.17 47.37 148.54 48 149.98 48C151.42 48 152.79 47.38 153.74 46.29H153.76Z" fill="#252A2E"/>
</g>
<defs>
<clipPath id="clip0_1121_211195">
<rect width="24" height="24" fill="white" transform="translate(66 30)"/>
</clipPath>
<clipPath id="clip1_1121_211195">
<rect width="24" height="24" fill="white" transform="translate(102 30)"/>
</clipPath>
<clipPath id="clip2_1121_211195">
<rect width="24" height="24" fill="white" transform="translate(138 30)"/>
</clipPath>
</defs>
</svg>

<svg width="228" height="84" fill="none" xmlns="http://www.w3.org/2000/svg"><path fill="#F1F1F6" d="M0 0h228v84H0z"/><path d="M42 52c-5.51 0-10-4.49-10-10s4.49-10 10-10 10 4.49 10 10-4.49 10-10 10zm0-18c-4.41 0-8 3.59-8 8s3.59 8 8 8 8-3.59 8-8-3.59-8-8-8zm-3.5 4c-.83 0-1.5.67-1.5 1.5s.67 1.5 1.5 1.5 1.5-.67 1.5-1.5-.67-1.5-1.5-1.5zm7 0c-.83 0-1.5.67-1.5 1.5s.67 1.5 1.5 1.5 1.5-.67 1.5-1.5-.67-1.5-1.5-1.5zm1 8.99c.27-.06.44-.33.38-.6A4.978 4.978 0 0042 42.5c-2.35 0-4.36 1.6-4.88 3.89a.503.503 0 00.98.22A3.982 3.982 0 0142 43.5c1.88 0 3.49 1.28 3.9 3.11.05.23.26.39.49.39.04 0 .07 0 .11-.01z" fill="#252A2E"/><g clip-path="url(#prefix__clip0_1121_211195)"><path d="M78 52c-5.51 0-10-4.49-10-10s4.49-10 10-10 10 4.49 10 10-4.49 10-10 10zm0-18c-4.41 0-8 3.59-8 8s3.59 8 8 8 8-3.59 8-8-3.59-8-8-8zm-3.5 4c-.83 0-1.5.67-1.5 1.5s.67 1.5 1.5 1.5 1.5-.67 1.5-1.5-.67-1.5-1.5-1.5zm7 0c-.83 0-1.5.67-1.5 1.5s.67 1.5 1.5 1.5 1.5-.67 1.5-1.5-.67-1.5-1.5-1.5zm.21 8.88c.21-.18.23-.5.05-.71A5.018 5.018 0 0078 44.46c-1.44 0-2.81.62-3.76 1.71-.18.21-.16.52.05.71.21.18.52.16.71-.05.76-.87 1.86-1.36 3.01-1.36 1.15 0 2.25.5 3.01 1.36.1.11.24.17.38.17.12 0 .23-.04.33-.12h-.02z" fill="#252A2E"/></g><path d="M186 32c-5.52 0-10 4.48-10 10s4.48 10 10 10 10-4.48 10-10-4.48-10-10-10zm-3.5 6c.83 0 1.5.67 1.5 1.5s-.67 1.5-1.5 1.5-1.5-.67-1.5-1.5.67-1.5 1.5-1.5zm8.38 6.11A4.978 4.978 0 01186 48c-2.35 0-4.36-1.6-4.88-3.89a.502.502 0 01.98-.22A3.982 3.982 0 00186 47c1.88 0 3.49-1.28 3.9-3.11a.5.5 0 01.594-.353.505.505 0 01.386.573zM189.5 41c-.83 0-1.5-.67-1.5-1.5s.67-1.5 1.5-1.5 1.5.67 1.5 1.5-.67 1.5-1.5 1.5z" fill="#0063A3"/><g clip-path="url(#prefix__clip1_1121_211195)"><path d="M114 52c-5.51 0-10-4.49-10-10s4.49-10 10-10 10 4.49 10 10-4.49 10-10 10zm0-18c-4.41 0-8 3.59-8 8s3.59 8 8 8 8-3.59 8-8-3.59-8-8-8zm-3.5 4c-.83 0-1.5.67-1.5 1.5s.67 1.5 1.5 1.5 1.5-.67 1.5-1.5-.67-1.5-1.5-1.5zm7 0c-.83 0-1.5.67-1.5 1.5s.67 1.5 1.5 1.5 1.5-.67 1.5-1.5-.67-1.5-1.5-1.5zm.5 7.5c0-.28-.22-.5-.5-.5h-7c-.28 0-.5.22-.5.5s.22.5.5.5h7c.28 0 .5-.22.5-.5z" fill="#252A2E"/></g><g clip-path="url(#prefix__clip2_1121_211195)"><path d="M150 52c-5.51 0-10-4.49-10-10s4.49-10 10-10 10 4.49 10 10-4.49 10-10 10zm0-18c-4.41 0-8 3.59-8 8s3.59 8 8 8 8-3.59 8-8-3.59-8-8-8zm-3.5 4c-.83 0-1.5.67-1.5 1.5s.67 1.5 1.5 1.5 1.5-.67 1.5-1.5-.67-1.5-1.5-1.5zm7 0c-.83 0-1.5.67-1.5 1.5s.67 1.5 1.5 1.5 1.5-.67 1.5-1.5-.67-1.5-1.5-1.5zm.26 8.29c.18-.21.16-.52-.05-.71a.505.505 0 00-.71.05c-.76.87-1.86 1.36-3.01 1.36-1.15 0-2.25-.5-3.01-1.36a.506.506 0 00-.71-.05c-.21.18-.23.5-.05.71a5.018 5.018 0 003.76 1.71c1.44 0 2.81-.62 3.76-1.71h.02z" fill="#252A2E"/></g><defs><clipPath id="prefix__clip0_1121_211195"><path fill="#fff" transform="translate(66 30)" d="M0 0h24v24H0z"/></clipPath><clipPath id="prefix__clip1_1121_211195"><path fill="#fff" transform="translate(102 30)" d="M0 0h24v24H0z"/></clipPath><clipPath id="prefix__clip2_1121_211195"><path fill="#fff" transform="translate(138 30)" d="M0 0h24v24H0z"/></clipPath></defs></svg>
